images/securety__1.svg

<svg width="104" height="104" viewBox="0 0 104 104" fill="none" xmlns="http://www.w3.org/2000/svg">
<path d="M32.3321 47.1279C31.59 47.1279 30.9884 47.8433 30.9884 48.7258C30.9884 49.6082 31.59 50.3236 32.3321 50.3236C33.0742 50.3236 33.6758 49.6082 33.6758 48.7258C33.6758 47.8433 33.0742 47.1279 32.3321 47.1279Z" fill="#010066"/>
<path d="M43.0679 50.3236C43.81 50.3236 44.4116 49.6082 44.4116 48.7258C44.4116 47.8433 43.81 47.1279 43.0679 47.1279C42.3258 47.1279 41.7242 47.8433 41.7242 48.7258C41.7242 49.6082 42.3259 50.3236 43.0679 50.3236Z" fill="#010066"/>
<path d="M60.4086 39.6729H63.511C63.7866 39.6729 64.0508 39.5634 64.2457 39.3686C64.4405 39.1737 64.55 38.9095 64.55 38.6339C64.55 38.3584 64.4405 38.0941 64.2457 37.8993C64.0508 37.7044 63.7866 37.595 63.511 37.595H60.4086C60.133 37.595 59.8688 37.7044 59.6739 37.8993C59.4791 38.0941 59.3696 38.3584 59.3696 38.6339C59.3696 38.9095 59.4791 39.1737 59.6739 39.3686C59.8688 39.5634 60.133 39.6729 60.4086 39.6729Z" fill="#010066"/>
<path d="M54.6503 73.2407L47.6754 70.313V67.261C47.6754 67.2474 47.6738 67.2341 47.6733 67.2206C51.218 64.7618 53.8119 61.0445 55.0408 56.6783C56.4925 56.6103 57.8623 55.9861 58.8662 54.9352C59.8701 53.8844 60.431 52.4875 60.4327 51.0341C60.43 50.2197 60.2599 49.4146 59.9329 48.6687C59.6059 47.9228 59.129 47.2521 58.5318 46.6983C58.3762 46.5574 58.2125 46.4258 58.0416 46.3041C58.0789 45.8337 58.1072 45.3689 58.1309 44.9073L58.133 44.9081C58.5447 38.921 57.1826 34.3573 57.1826 34.3573C55.0847 26.6116 50.0778 23.1168 46.247 21.5491C43.7558 20.5225 41.0865 19.9977 38.392 20.0047H38.297C37.7018 19.9835 29.9017 19.817 24.211 25.7399C19.7718 30.36 17.9044 37.3319 18.6582 46.4618C17.7089 47.1486 16.9968 48.1138 16.6204 49.2234C16.2441 50.3331 16.2223 51.5323 16.558 52.6549C16.8937 53.7775 17.5703 54.7679 18.494 55.4888C19.4177 56.2097 20.5428 56.6254 21.7133 56.6783C23.0633 61.4712 26.0596 65.4758 30.0784 67.8655V70.1784L22.7827 73.2407C18.9915 74.8252 15.7544 77.4969 13.4796 80.9188C11.2048 84.3407 9.99409 88.3595 10.0003 92.4685V93.8531C10.0003 95.8813 11.5317 98.7915 18.8276 101.139C24.1552 102.853 31.2187 103.797 38.7166 103.797C46.2145 103.797 53.278 102.853 58.6056 101.139C65.9015 98.7915 67.4329 95.8813 67.4329 93.8531V92.4685C67.439 88.3595 66.2283 84.3407 63.9535 80.9188C61.6787 77.4969 58.4415 74.8252 54.6503 73.2407ZM58.3548 51.0341C58.3537 51.8557 58.0699 52.6519 57.5511 53.289C57.0323 53.926 56.31 54.3651 55.5057 54.5325C55.5731 54.0781 55.6246 53.641 55.6632 53.26C55.677 53.1242 55.6638 52.9871 55.6246 52.8565C55.5853 52.7258 55.5207 52.6041 55.4344 52.4985C55.3481 52.3928 55.2418 52.3051 55.1217 52.2405C55.0015 52.1758 54.8698 52.1355 54.7341 52.1218C54.5983 52.1081 54.4612 52.1212 54.3305 52.1605C54.1999 52.1998 54.0782 52.2644 53.9725 52.3507C53.8668 52.4369 53.7792 52.5432 53.7145 52.6634C53.6499 52.7835 53.6096 52.9152 53.5959 53.051C53.5238 53.811 53.4101 54.5664 53.2555 55.314C53.2455 55.3436 53.2334 55.3721 53.2261 55.403C52.4934 58.5603 50.8938 61.4504 48.6075 63.7479C49.6139 61.66 50.0452 59.4814 50.2257 57.8629C50.235 57.8214 50.2457 57.7712 50.2598 57.7052C51.8649 50.1665 53.7819 47.4599 54.6996 47.4599C54.7081 47.4599 54.7167 47.4602 54.725 47.4606L54.7239 47.4594C54.7767 47.4628 54.8298 47.4623 54.8826 47.4576C55.2918 47.4199 55.7043 47.4699 56.0926 47.6042C56.481 47.7384 56.8363 47.954 57.1348 48.2363C57.5191 48.5942 57.8257 49.0272 58.0355 49.5085C58.2454 49.9898 58.3541 50.5091 58.3548 51.0341ZM52.6049 37.5954H55.7074C55.9829 37.5954 56.2472 37.7049 56.442 37.8997C56.6369 38.0946 56.7463 38.3588 56.7463 38.6344C56.7463 38.9099 56.6369 39.1742 56.442 39.369C56.2472 39.5639 55.9829 39.6733 55.7074 39.6733H52.605C52.3294 39.6733 52.0652 39.5639 51.8703 39.369C51.6755 39.1742 51.566 38.9099 51.566 38.6344C51.566 38.3588 51.6755 38.0946 51.8703 37.8997C52.0652 37.7049 52.3294 37.5954 52.6049 37.5954ZM23.528 55.403C23.5225 55.3799 23.5129 55.3588 23.5059 55.3365C23.3486 54.5816 23.2333 53.8186 23.1607 53.051C23.1329 52.7768 22.9974 52.5249 22.784 52.3506C22.5705 52.1764 22.2966 52.0941 22.0224 52.1218C21.7483 52.1495 21.4964 52.285 21.3221 52.4984C21.1479 52.7119 21.0655 52.9858 21.0932 53.26C21.1318 53.6413 21.1833 54.0786 21.2509 54.5331C20.3944 54.3572 19.6322 53.873 19.109 53.1724C18.5857 52.4718 18.3378 51.6036 18.4121 50.7324C18.4865 49.8611 18.878 49.0475 19.5125 48.4457C20.1469 47.844 20.9801 47.496 21.8541 47.4677C22.8018 47.6301 24.6509 50.3974 26.2069 57.7054C26.2383 57.8526 26.2539 57.9258 26.2715 57.9845C26.4709 59.7878 26.9304 61.5526 27.6355 63.2242C25.6224 61.0096 24.2085 58.3174 23.528 55.403ZM28.1401 54.0874C27.9423 54.2006 27.7553 54.3315 27.5812 54.4785C26.7553 51.3152 25.829 48.9743 24.8023 47.4558C28.8551 47.2104 36.4501 45.9182 45.1083 40.2646C45.4553 40.0335 45.8764 39.9411 46.2883 40.0056C46.7002 40.0701 47.073 40.2868 47.3328 40.6129C48.6724 42.2974 50.5993 44.4924 52.7319 46.2078C51.2767 47.4849 49.9913 50.2448 48.8881 54.4671C48.7179 54.3247 48.5353 54.1976 48.3427 54.0873C45.0052 52.1913 41.6176 51.177 38.2736 51.073C38.2521 51.0723 38.2305 51.0723 38.209 51.073C34.8651 51.177 31.4774 52.1913 28.1401 54.0874ZM44.9961 57.423C44.8408 57.4232 44.6891 57.3767 44.5607 57.2896C37.8085 52.7292 32.4149 57.0573 32.1886 57.2438C32.0293 57.373 31.8255 57.4342 31.6214 57.4141C31.4173 57.394 31.2294 57.2942 31.0983 57.1365C30.9673 56.9787 30.9037 56.7756 30.9215 56.5713C30.9392 56.367 31.0367 56.1779 31.1929 56.045C32.442 55.0944 33.8716 54.4082 35.3946 54.0285C37.7466 53.4224 41.3972 53.2724 45.4329 55.998C45.5712 56.0914 45.676 56.2267 45.7316 56.3841C45.7873 56.5415 45.7909 56.7126 45.742 56.8722C45.693 57.0318 45.5942 57.1715 45.4599 57.2707C45.3256 57.3698 45.163 57.4232 44.9961 57.423ZM45.5975 67.7146V73.2364C45.5975 74.6232 42.7234 76.1744 38.8769 76.1744C35.0304 76.1744 32.1563 74.6232 32.1563 73.2364V68.6264C33.867 69.6527 35.9004 70.1703 38.2414 70.1703C41.1935 70.1703 43.6542 69.3434 45.5975 67.7146ZM65.3549 93.8531C65.3549 97.5736 54.4149 101.719 38.7166 101.719C23.0183 101.719 12.0781 97.5737 12.0781 93.8531V92.4685C12.0726 88.7689 13.1626 85.1505 15.2108 82.0696C17.2589 78.9887 20.1735 76.5832 23.5869 75.1565L30.0784 72.4319V73.2364C30.0784 76.0959 33.8609 78.2522 38.8768 78.2522C43.8928 78.2522 47.6753 76.0959 47.6753 73.2364V72.5665L53.8461 75.1565C57.2595 76.5832 60.1741 78.9887 62.2222 82.0696C64.2704 85.1505 65.3604 88.7689 65.3549 92.4685L65.3549 93.8531Z" fill="#010066"/>
<path d="M94.8008 31.8609C94.802 30.2953 94.3085 28.7694 93.3908 27.501L94.574 26.0174C94.6607 25.9109 94.7254 25.7883 94.7644 25.6566C94.8034 25.525 94.816 25.3869 94.8013 25.2504C94.7866 25.1138 94.745 24.9816 94.6789 24.8612C94.6128 24.7409 94.5235 24.6349 94.4161 24.5492C94.3088 24.4636 94.1856 24.4001 94.0535 24.3624C93.9215 24.3247 93.7833 24.3136 93.6469 24.3296C93.5106 24.3457 93.3787 24.3886 93.2591 24.4559C93.1394 24.5232 93.0342 24.6135 92.9497 24.7217L91.9394 25.9884C90.7313 25.0389 89.2596 24.4853 87.7252 24.4032C86.1908 24.3211 84.6685 24.7144 83.3659 25.5295C82.0633 26.3447 81.044 27.5419 80.447 28.9578C79.8501 30.3737 79.7045 31.9393 80.0303 33.441H69.3182C68.567 33.4418 67.8468 33.7406 67.3156 34.2718C66.7844 34.803 66.4856 35.5232 66.4847 36.2744V42.0748C66.4856 42.826 66.7844 43.5462 67.3156 44.0774C67.8468 44.6085 68.567 44.9073 69.3182 44.9082H75.0419L75.2711 47.5896C75.3301 48.3262 75.6654 49.0133 76.2098 49.5131C76.7542 50.0128 77.4673 50.2883 78.2063 50.2843H81.0356L81.2001 52.3137C81.2565 52.9708 81.5566 53.583 82.0413 54.0301C82.5261 54.4772 83.1605 54.7269 83.8199 54.7302H88.5209C88.8846 54.7302 89.2444 54.6547 89.5774 54.5085C89.9105 54.3624 90.2096 54.1486 90.4558 53.8809C90.702 53.6132 90.8899 53.2972 91.0077 52.9531C91.1255 52.609 91.1705 52.2442 91.1401 51.8817L90.049 38.8951C90.0469 38.8699 90.0431 38.8452 90.0407 38.8201C91.4418 38.2731 92.6454 37.3165 93.4946 36.075C94.3438 34.8336 94.7989 33.365 94.8008 31.8609ZM72.4289 42.8304H69.3182C69.1178 42.8302 68.9258 42.7505 68.7841 42.6089C68.6425 42.4672 68.5628 42.2752 68.5626 42.0748V36.2744C68.5628 36.074 68.6425 35.882 68.7841 35.7403C68.9258 35.5987 69.1178 35.519 69.3182 35.5188H72.429L72.4289 42.8304ZM78.2062 48.2065C77.9885 48.2077 77.7784 48.1265 77.618 47.9793C77.4577 47.8321 77.3589 47.6296 77.3415 47.4126L77.1274 44.9083H78.7178C79.2298 44.9108 79.7223 45.1047 80.0986 45.4518C80.475 45.7989 80.708 46.2741 80.7519 46.7842L80.8671 48.2065H78.2062ZM87.3307 37.2532C86.4715 37.2542 85.6246 37.0498 84.8604 36.6572C84.0962 36.2645 83.4368 35.6949 82.9373 34.9959C82.4378 34.2968 82.1126 33.4885 81.9887 32.6383C81.8649 31.7881 81.946 30.9206 82.2253 30.1081C82.5046 29.2956 82.974 28.5616 83.5944 27.9672C84.2148 27.3729 84.9682 26.9354 85.792 26.6912C86.6157 26.4469 87.4859 26.4031 88.33 26.5633C89.1741 26.7235 89.9677 27.083 90.6447 27.612L87.1753 31.9622L85.8463 30.3733C85.7588 30.2687 85.6515 30.1823 85.5306 30.1191C85.4097 30.0559 85.2775 30.0171 85.1416 30.005C85.0057 29.9929 84.8687 30.0077 84.7385 30.0485C84.6083 30.0893 84.4874 30.1554 84.3828 30.243C84.2781 30.3305 84.1917 30.4378 84.1285 30.5587C84.0653 30.6796 84.0266 30.8118 84.0145 30.9477C84.0024 31.0836 84.0172 31.2206 84.058 31.3508C84.0988 31.481 84.1649 31.6019 84.2524 31.7065L86.3974 34.271C86.495 34.3876 86.6169 34.4813 86.7546 34.5457C86.8923 34.61 87.0424 34.6433 87.1944 34.6433H87.2065C87.3605 34.6415 87.5122 34.6055 87.6505 34.5378C87.7889 34.4702 87.9105 34.3726 88.0065 34.2522L92.0253 29.2131C92.4888 30.0332 92.7293 30.9605 92.7227 31.9025C92.7161 32.8445 92.4627 33.7683 91.9877 34.5818C91.5127 35.3953 90.8327 36.07 90.0155 36.5387C89.1984 37.0074 88.2726 37.2537 87.3306 37.253L87.3307 37.2532Z" fill="#010066"/>
</svg>

<svg width="104" height="104" fill="none" xmlns="http://www.w3.org/2000/svg"><path d="M32.332 47.128c-.742 0-1.344.715-1.344 1.598 0 .882.602 1.598 1.344 1.598.742 0 1.344-.716 1.344-1.598 0-.883-.602-1.598-1.344-1.598ZM43.068 50.324c.742 0 1.344-.716 1.344-1.598 0-.883-.602-1.598-1.344-1.598-.742 0-1.344.715-1.344 1.598 0 .882.602 1.598 1.344 1.598ZM60.409 39.673h3.102a1.04 1.04 0 0 0 0-2.078h-3.102a1.039 1.039 0 1 0 0 2.078Z" fill="#010066"/><path d="m54.65 73.24-6.975-2.927v-3.052l-.002-.04c3.545-2.46 6.139-6.177 7.368-10.543a5.656 5.656 0 0 0 5.392-5.644 5.94 5.94 0 0 0-1.901-4.336 5.377 5.377 0 0 0-.49-.394c.037-.47.065-.935.089-1.397l.002.001c.412-5.987-.95-10.55-.95-10.55-2.098-7.746-7.105-11.241-10.936-12.809a20.477 20.477 0 0 0-7.855-1.544h-.095c-.595-.021-8.395-.188-14.086 5.735-4.44 4.62-6.307 11.592-5.553 20.722a5.648 5.648 0 0 0 3.055 10.216c1.35 4.793 4.347 8.798 8.365 11.188v2.312l-7.295 3.063A20.805 20.805 0 0 0 10 92.469v1.384c0 2.028 1.532 4.939 8.828 7.286 5.327 1.714 12.39 2.658 19.889 2.658 7.498 0 14.561-.944 19.889-2.658 7.295-2.347 8.827-5.258 8.827-7.286V92.47A20.807 20.807 0 0 0 54.65 73.24Zm3.705-22.206a3.579 3.579 0 0 1-2.85 3.498c.068-.454.12-.891.158-1.272a1.038 1.038 0 1 0-2.067-.209 20.94 20.94 0 0 1-.34 2.263c-.01.03-.023.058-.03.089a17.41 17.41 0 0 1-4.618 8.345c1.006-2.088 1.437-4.267 1.618-5.885l.034-.158c1.605-7.538 3.522-10.245 4.44-10.245h.025-.001c.053.003.106.002.159-.002a2.89 2.89 0 0 1 2.252.778 3.83 3.83 0 0 1 1.22 2.798Zm-5.75-13.439h3.102a1.039 1.039 0 0 1 0 2.078h-3.102a1.039 1.039 0 1 1 0-2.078ZM23.528 55.403c-.005-.023-.015-.044-.022-.066a20.81 20.81 0 0 1-.345-2.286 1.04 1.04 0 0 0-2.068.209c.039.381.09.819.158 1.273a3.57 3.57 0 0 1 .603-7.065c.948.162 2.797 2.93 4.353 10.237.031.148.047.22.064.28.2 1.803.66 3.568 1.364 5.24a17.565 17.565 0 0 1-4.107-7.822Zm4.612-1.316a3.765 3.765 0 0 0-.559.391c-.826-3.163-1.752-5.504-2.779-7.022 4.053-.246 11.648-1.538 20.306-7.191a1.664 1.664 0 0 1 2.225.348c1.34 1.684 3.266 3.88 5.399 5.595-1.455 1.277-2.74 4.037-3.844 8.26a3.769 3.769 0 0 0-.545-.38c-3.338-1.897-6.725-2.911-10.07-3.015h-.064c-3.344.104-6.732 1.118-10.069 3.014Zm16.856 3.336a.774.774 0 0 1-.435-.133c-6.752-4.56-12.146-.233-12.372-.046a.78.78 0 0 1-.996-1.199 11.553 11.553 0 0 1 4.202-2.017c2.352-.606 6.002-.756 10.038 1.97a.78.78 0 0 1-.437 1.425Zm.601 10.292v5.521c0 1.387-2.874 2.938-6.72 2.938-3.847 0-6.72-1.55-6.72-2.938v-4.61c1.71 1.027 3.743 1.544 6.084 1.544 2.953 0 5.413-.827 7.356-2.455Zm19.758 26.138c0 3.72-10.94 7.866-26.638 7.866-15.699 0-26.639-4.145-26.639-7.866V92.47a18.733 18.733 0 0 1 11.509-17.313l6.491-2.724v.804c0 2.86 3.783 5.016 8.799 5.016s8.798-2.156 8.798-5.016v-.67l6.171 2.59A18.733 18.733 0 0 1 65.355 92.47v1.384ZM94.8 31.86a7.428 7.428 0 0 0-1.41-4.359l1.184-1.484a1.038 1.038 0 1 0-1.624-1.295l-1.01 1.266a7.465 7.465 0 0 0-11.91 7.453H69.318a2.836 2.836 0 0 0-2.833 2.833v5.8a2.837 2.837 0 0 0 2.833 2.834h5.724l.23 2.682a2.929 2.929 0 0 0 2.934 2.694h2.83l.164 2.03a2.643 2.643 0 0 0 2.62 2.416h4.7a2.628 2.628 0 0 0 2.62-2.848L90.05 38.895l-.008-.075a7.48 7.48 0 0 0 4.76-6.96ZM72.43 42.83h-3.11a.757.757 0 0 1-.756-.755v-5.8a.757.757 0 0 1 .755-.756h3.111v7.311Zm5.777 5.377a.863.863 0 0 1-.865-.794l-.214-2.505h1.59a2.051 2.051 0 0 1 2.035 1.876l.115 1.422h-2.66Zm9.125-10.954a5.392 5.392 0 1 1 3.314-9.641l-3.47 4.35-1.329-1.589a1.04 1.04 0 0 0-1.594 1.333l2.145 2.565a1.04 1.04 0 0 0 .797.372h.013a1.037 1.037 0 0 0 .8-.39l4.018-5.04a5.39 5.39 0 0 1-4.694 8.04Z" fill="#010066"/></svg>
